X:1
T:Title
%%score ( 1 2 ) ( 3 4 ) ( 5 6 )
L:1/8
Q:1/4=123
M:3/4
K:A
V:1 treble nm="Picked Bass, Soprano Voice"
V:2 treble 
V:3 bass nm="Picked Bass, Tenor Voice"
V:4 bass 
V:5 bass nm="Picked Bass, Baritone Voice"
V:6 bass 
V:1
 z6 | z2 z2 e2- | e2 z2 z2 | z2 A4 | z2 c4- | c2 c4 | z6 | z6 | E6- | E2 z2 z2 | .c2 c2 B2 | B6 | %12
 c2 e2 f2- | f.e e4 | .c2 c2 z2 | e6 | f2 e2 c2- | c2 B2 z2 | e4 c2- | c2 A2 A2 | B4 z2 | %21
 z2 e2- [ce]2 | B4 A2- | A2 F2 .E2 | E6- | E2 z2 z2 |] %26
V:2
 x6 | .c2 c2 z2 | c6 | .A2 z2 B2- | B4 z2 | e4 B2- | B4 A2- | A2 F2 .E2 | x6 | x6 | x6 | x6 | x6 | %13
 x6 | z2 z2 B2- | B2 z2 z2 | x6 | z2 z2 A2- | A2 z2 z2 | x6 | z2 z2 c2- | c4 z2 | x6 | x6 | x6 | %25
 x6 |] %26
V:3
 z6 | .A,2 A,2 B,2- | B,2 z2 z2 | C2 C3 B,- | B,2 .A,2 F,2- | F,A, z2 F,2- | F,4 E,2- | %7
 E,2 F,2 .A,2 | A,6- | A,2 z2 z2 | A,2 C2 E2- | E2 E4 | F2 E2 C2- | C2 A,4 | A,4 E2- | E2 z2 z2 | %16
 C2 z2 z2 | z2[K:treble] F4 | C6[K:bass] | z2 z2 C2- | C2 z2 z2 | z6 | F,4 E,2- | E,2 F,2 A,2 | %24
 A,6- | A,4 z2 |] %26
V:4
 x6 | x6 | z2 A,4- | A,2 z2 z2 | x6 | z2 A,4 | x6 | x6 | x6 | x6 | x6 | x6 | x6 | z .B,3 z2 | %14
 z2 C2 z2 | A,6 | z B, A,2 F,2- | F,2[K:treble] z2 E2 | z2 z2[K:bass] A,2- | A,2- [A,C]2 z2 | %20
 B,3 A, F,2- | F,2 .A,2 A,2 | x6 | x6 | x6 | x6 |] %26
V:5
 z6 | z2 A,,4 | A,6- | A,2 F,4 | z2 F,4- | F,2 C,4 | z6 | z2 z2 E,2- | E,2 z2 z2 | z6 | %10
 .F,2 F,2 E,2 | z6 | F,2 E,2 F,2- | F,G, z2 z2 | F,2 z2 E,2- | E,4 z2 | C,2- [C,E,]2 F,2- | %17
 F,2 z2 A,2 | E,4 A,2- | A,2 F,2 F,2 | E,4 F,2- | F,2 z2 C,2 | B,,6 | z2 z2 E,2- | E,2 z2 z2 | %25
 z6 |] %26
V:6
 x6 | .A,,2 z2 E,2- | E,2 z2 z2 | .F,2 z2 E,2- | E,4 z2 | E,4 B,,2- | B,,4 A,,2- | A,,2 D,2 z2 | %8
 A,,6- | A,,2 z2 z2 | x6 | E,6- | E,2 z2 z2 | z2 A,4- | A,2 F,4 | A,,6- | A,,2 z2 z2 | z2 B,4 | %18
 x6 | x6 | x6 | z2 E,4 | z2 z2 A,,2- | A,,2- [A,,D,]2 z2 | A,,6- | A,,4 z2 |] %26

